X: 767
T: Biangong dui
%%abc-version 2.0
%%abcx-abcm2ps-target-version 5.9.1 (29 Sep 2008)
%%abc-creator hum2abc beta
%%abcx-conversion-date 2013/10/02 07:52:30
%%abc-edited-by Helmut Schaffrath
%%humdrum-veritas 2909426507
%%humdrum-veritas-data 2536099188
%%continueall 1
%%barnumbers 0
L: 1/8
M: 2/4
K: G
d d e c [I:setbarnb 1]| 
d ed2 | 
A d c d | 
F GA2 | 
d d e c | 
d ed2 | 
A c B D | 
=F GA2 | 
d Bd2 | 
d e d c | 
d2G A | 
c2A G | 
G A G E | 
D4 |]  



